X:364
T:Johnny Groat's House
T:Tigh Iain Ghr\`oit
R:Reel
B:The Athole Collection
M:C|
L:1/8
K:C
Gccd e2dc|BGdc BcdB|Bccd e2dc|GcBc dB~c2:|
gfeg fagf|ecgc Bcdf|gfeg fagf|gefd BG ~c2|gfeg fagf|
ecgc Bcdf|ecBc BcEc|GEFD B,G,C2||

